X: 46
T: 30th Anniversary
R: slip jig
M: 9/8
K: Fmajor
F3 A/B/cf dcA|G2G GA/B/c dcA|F3 A/B/cf dcA|1 G2A AGE F2C:|2 G2A AGE F2E||
D3 FAd fed|~e3 Ad/e/f gfe|fed bag fed|1 ^c2e ABG AGE:|2 ^c2e ABc d2e||
~f3 cA/B/c agf|d2b bag efg|f2c A/B/cf agf|1 e2c cde f3:|2 e2c cde fcA||

